X:1
T:Title
%%score { ( 1 4 5 ) | ( 2 3 ) }
L:1/8
M:4/4
K:C
V:1 treble nm="Grand Piano"
V:4 treble 
V:5 treble 
V:2 bass 
V:3 bass 
V:1
 z4 z2[Q:1/4=110] [CE]2 | [EG]2 [EG]2 [EG]>[EG] [CE]>[DF] | [EG]6 [_Bc]2 | %3
 [Ac]2 [Ac]2 [Ac]>[Ac] [GB]>[FA] |[M:3/4] [EG]6 |[M:1/4] [EG]2 |[M:4/4] B2 B2 B>G A>B | c6 [EAc]2 | %8
 [DGB]2 [DGB]>[DGB] [E^Fc][DFB] [CFA]2 |[M:3/4] [B,G]6 |[M:1/4] [CE]>F |[M:4/4] [EG]6 z2 | G6 z2 | %13
 [Ed]2 [Ec]2 [G,B,G]2 [A,C^F]2 | [B,DF]6 D>E | F6 z2 | F6 z2 | [DFB]2 [CFA]2 [G,B,G]2 [G,DF]2 | %18
 [G,E]2 [_EA]2 [=EG]F E>F | G6 z2 | G6 z2 | [Ec]6 z2 |[M:3/4] [FA]6 |[M:1/4] A2 |[M:4/4] c6 z2 | %25
 e6 z2 | [^Fc]4 [=Fd]4 |[M:3/4] [Ec]6 |] %28
V:2
 z4 z2 [C,G,]2 | [C,C]2 [C,C]2 [C,C]>[C,C] [C,G,]>[C,G,] | [C,C]6 [E,C]2 | %3
 [F,C]2 [F,F]2 [F,F]>[F,F] [F,C]>[F,C] |[M:3/4] [C,C]6 |[M:1/4] [C,C]2 | %6
[M:4/4][K:treble] [G,DF]2 [G,DF]2 [G,DF]>[G,B,F] [G,CF]>[G,DF] | [A,CE]6 A,,2 | %8
 D,2 D,>D, D,D, D,2 |[M:3/4] G,2 z A, z F, |[M:1/4] E, z/ D/ |[M:4/4] C,2 C,>C, C,>E C>D | E6 z2 | %13
 [C,G,]2 [C,G,]2 E,2 _E,2 | D,2 B,,2 G,,2 B,>C | D6[K:treble] z2 | D6[K:bass] z2 | %17
 G,2 G,2 G,,2 B,,2 | C,2 [C,^F,]2 z D C>D | E6 z2 | E6 z2 | [C,G,]>C, C,>C, z z/ E/ [C,C]2 | %22
[M:3/4] [F,C]>F, F,>F, F,2 |[M:1/4][K:treble] F2 |[M:4/4] _E6[K:bass] z2 | E6 z2 | [D,D]4 [G,B,]4 | %27
[M:3/4] [C,G,C]6 |] %28
V:3
 x8 | x8 | x8 | x8 |[M:3/4] x6 |[M:1/4] x2 |[M:4/4][K:treble] x8 | x8 | x8 |[M:3/4] z2 G,2 G,2 | %10
[M:1/4] z D, |[M:4/4] x8 | z z/ C,/ C,>C, C,2 [C,G,]>[C,G,] | x8 | x8 | %15
 z2 G,>G, G,>[K:treble]D B,>C | z z/ G,/[K:bass] G,>G, G,2 G,2 | x8 | z4 [C,G,]2 z2 | %19
 z2 C,>C, C,>E C>D | z z/ C,/ C,>C, C,2 C,2 | z4 C,2 z2 |[M:3/4] x6 |[M:1/4][K:treble] x2 | %24
[M:4/4] z2[K:bass] ^F,2 F,2 (3_EEE | z2 (3G,G,G, G,2 [E,C]2 | x8 |[M:3/4] x6 |] %28
V:4
 x8 | x8 | x8 | x8 |[M:3/4] x6 |[M:1/4] x2 |[M:4/4] x8 | x8 | x8 |[M:3/4] x6 |[M:1/4] x2 | %11
[M:4/4] z2 G,>G, C>G E>F | z z/ G,/ C>A, G,2 [EA]>[EB] | x8 | x8 | z2 B,>B, B,>F D>E | %16
 z z/ B,/ B,>B, B,2 [B,DG]2 | x8 | x8 | z2 G,>G, C>G E>F | z z/ G,/ C>A, G,2 [CEG]2 | %21
 z z/ G,/ G,>G, z z/ B/ [Ed]>[Ec] |[M:3/4] z z/ C/ C>C C2 |[M:1/4] x2 |[M:4/4] z2 A,2 A,2 (3cBc | %25
 z2 (3CCC C2 G2 | x8 |[M:3/4] x6 |] %28
V:5
 x8 | x8 | x8 | x8 |[M:3/4] x6 |[M:1/4] x2 |[M:4/4] x8 | x8 | x8 |[M:3/4] x6 |[M:1/4] x2 | %11
[M:4/4] x8 | x8 | x8 | x8 | x8 | x8 | x8 | x8 | x8 | x8 | z4 G,2 z2 |[M:3/4] x6 |[M:1/4] x2 | %24
[M:4/4] x8 | x8 | x8 |[M:3/4] x6 |] %28

